assets/components_previews/general/dark/axis.svg

<svg width="320" height="232" viewBox="0 0 320 232" fill="none" xmlns="http://www.w3.org/2000/svg">
<g filter="url(#filter0_dd_10196_62617)">
<g clip-path="url(#clip0_10196_62617)">
<rect x="52" y="62" width="216" height="108" rx="12" fill="#0E0F10"/>
<path fill-rule="evenodd" clip-rule="evenodd" d="M105 63.5V62L107 62V63.5L105 63.5ZM105 69.5V66.5H107V69.5H105ZM105 75.5V72.5H107V75.5H105ZM105 81.5V78.5H107V81.5H105ZM105 87.5V84.5H107V87.5H105ZM105 93.5V90.5H107V93.5H105ZM105 99.5V96.5H107V99.5H105ZM105 105.5V102.5H107V105.5H105ZM105 111.5V108.5H107V111.5H105ZM105 117.5V114.5H107V117.5H105ZM105 123.5V120.5H107V123.5H105ZM105 129.5V126.5H107V129.5H105ZM105 135.5V132.5H107V135.5H105ZM105 141.5V138.5H107V141.5H105ZM105 147.5V144.5H107V147.5H105ZM105 153.5V150.5H107V153.5H105ZM105 159.5V156.5H107V159.5H105ZM105 165.5V162.5H107V165.5H105ZM105 170V168.5H107V170H105Z" fill="#2F1C78"/>
<path fill-rule="evenodd" clip-rule="evenodd" d="M159 63.5V62L161 62V63.5L159 63.5ZM159 69.5V66.5H161V69.5H159ZM159 75.5V72.5H161V75.5H159ZM159 81.5V78.5H161V81.5H159ZM159 87.5V84.5H161V87.5H159ZM159 93.5V90.5H161V93.5H159ZM159 99.5V96.5H161V99.5H159ZM159 105.5V102.5H161V105.5H159ZM159 111.5V108.5H161V111.5H159ZM159 117.5V114.5H161V117.5H159ZM159 123.5V120.5H161V123.5H159ZM159 129.5V126.5H161V129.5H159ZM159 135.5V132.5H161V135.5H159ZM159 141.5V138.5H161V141.5H159ZM159 147.5V144.5H161V147.5H159ZM159 153.5V150.5H161V153.5H159ZM159 159.5V156.5H161V159.5H159ZM159 165.5V162.5H161V165.5H159ZM159 170V168.5H161V170H159Z" fill="#2F1C78"/>
<path fill-rule="evenodd" clip-rule="evenodd" d="M213 63.5V62L215 62V63.5L213 63.5ZM213 69.5V66.5H215V69.5H213ZM213 75.5V72.5H215V75.5H213ZM213 81.5V78.5H215V81.5H213ZM213 87.5V84.5H215V87.5H213ZM213 93.5V90.5H215V93.5H213ZM213 99.5V96.5H215V99.5H213ZM213 105.5V102.5H215V105.5H213ZM213 111.5V108.5H215V111.5H213ZM213 117.5V114.5H215V117.5H213ZM213 123.5V120.5H215V123.5H213ZM213 129.5V126.5H215V129.5H213ZM213 135.5V132.5H215V135.5H213ZM213 141.5V138.5H215V141.5H213ZM213 147.5V144.5H215V147.5H213ZM213 153.5V150.5H215V153.5H213ZM213 159.5V156.5H215V159.5H213ZM213 165.5V162.5H215V165.5H213ZM213 170V168.5H215V170H213Z" fill="#2F1C78"/>
<path fill-rule="evenodd" clip-rule="evenodd" d="M53.5 145H52L52 143H53.5V145ZM59.5 145H56.5V143H59.5V145ZM65.5 145H62.5V143H65.5V145ZM71.5 145H68.5V143H71.5V145ZM77.5 145H74.5V143H77.5V145ZM83.5 145H80.5V143H83.5V145ZM89.5 145H86.5V143H89.5V145ZM95.5 145H92.5V143H95.5V145ZM101.5 145H98.5V143H101.5V145ZM113.5 145H110.5V143H113.5V145ZM119.5 145H116.5V143H119.5V145ZM125.5 145H122.5V143H125.5V145ZM131.5 145H128.5V143H131.5V145ZM137.5 145H134.5V143H137.5V145ZM143.5 145H140.5V143H143.5V145ZM149.5 145H146.5V143H149.5V145ZM155.5 145H152.5V143H155.5V145ZM167.5 145H164.5V143H167.5V145ZM173.5 145H170.5V143H173.5V145ZM179.5 145H176.5V143H179.5V145ZM185.5 145H182.5V143H185.5V145ZM191.5 145H188.5V143H191.5V145ZM197.5 145H194.5V143H197.5V145ZM203.5 145H200.5V143H203.5V145ZM209.5 145H206.5V143H209.5V145ZM220.5 145H217.5V143H220.5V145ZM226.5 145H223.5V143H226.5V145ZM232.5 145H229.5V143H232.5V145ZM238.5 145H235.5V143H238.5V145ZM244.5 145H241.5V143H244.5V145ZM250.5 145H247.5V143H250.5V145ZM256.5 145H253.5V143H256.5V145ZM262.5 145H259.5V143H262.5V145ZM268 145H265.5V143H268V145Z" fill="#2F1C78"/>
<path fill-rule="evenodd" clip-rule="evenodd" d="M53.5 117H52L52 115H53.5V117ZM59.5 117H56.5V115H59.5V117ZM65.5 117H62.5V115H65.5V117ZM71.5 117H68.5V115H71.5V117ZM77.5 117H74.5V115H77.5V117ZM83.5 117H80.5V115H83.5V117ZM89.5 117H86.5V115H89.5V117ZM95.5 117H92.5V115H95.5V117ZM101.5 117H98.5V115H101.5V117ZM113.5 117H110.5V115H113.5V117ZM119.5 117H116.5V115H119.5V117ZM125.5 117H122.5V115H125.5V117ZM131.5 117H128.5V115H131.5V117ZM137.5 117H134.5V115H137.5V117ZM143.5 117H140.5V115H143.5V117ZM149.5 117H146.5V115H149.5V117ZM155.5 117H152.5V115H155.5V117ZM167.5 117H164.5V115H167.5V117ZM173.5 117H170.5V115H173.5V117ZM179.5 117H176.5V115H179.5V117ZM185.5 117H182.5V115H185.5V117ZM191.5 117H188.5V115H191.5V117ZM197.5 117H194.5V115H197.5V117ZM203.5 117H200.5V115H203.5V117ZM209.5 117H206.5V115H209.5V117ZM220.5 117H217.5V115H220.5V117ZM226.5 117H223.5V115H226.5V117ZM232.5 117H229.5V115H232.5V117ZM238.5 117H235.5V115H238.5V117ZM244.5 117H241.5V115H244.5V117ZM250.5 117H247.5V115H250.5V117ZM256.5 117H253.5V115H256.5V117ZM262.5 117H259.5V115H262.5V117ZM268 117H265.5V115H268V117Z" fill="#2F1C78"/>
<path fill-rule="evenodd" clip-rule="evenodd" d="M53.5 89H52L52 87H53.5V89ZM59.5 89H56.5V87H59.5V89ZM65.5 89H62.5V87H65.5V89ZM71.5 89H68.5V87H71.5V89ZM77.5 89H74.5V87H77.5V89ZM83.5 89H80.5V87H83.5V89ZM89.5 89H86.5V87H89.5V89ZM95.5 89H92.5V87H95.5V89ZM101.5 89H98.5V87H101.5V89ZM113.5 89H110.5V87H113.5V89ZM119.5 89H116.5V87H119.5V89ZM125.5 89H122.5V87H125.5V89ZM131.5 89H128.5V87H131.5V89ZM137.5 89H134.5V87H137.5V89ZM143.5 89H140.5V87H143.5V89ZM149.5 89H146.5V87H149.5V89ZM155.5 89H152.5V87H155.5V89ZM167.5 89H164.5V87H167.5V89ZM173.5 89H170.5V87H173.5V89ZM179.5 89H176.5V87H179.5V89ZM185.5 89H182.5V87H185.5V89ZM191.5 89H188.5V87H191.5V89ZM197.5 89H194.5V87H197.5V89ZM203.5 89H200.5V87H203.5V89ZM209.5 89H206.5V87H209.5V89ZM220.5 89H217.5V87H220.5V89ZM226.5 89H223.5V87H226.5V89ZM232.5 89H229.5V87H232.5V89ZM238.5 89H235.5V87H238.5V89ZM244.5 89H241.5V87H244.5V89ZM250.5 89H247.5V87H250.5V89ZM256.5 89H253.5V87H256.5V89ZM262.5 89H259.5V87H262.5V89ZM268 89H265.5V87H268V89Z" fill="#2F1C78"/>
</g>
</g>
<defs>
<filter id="filter0_dd_10196_62617" x="32" y="54" width="256" height="148" filterUnits="userSpaceOnUse" color-interpolation-filters="sRGB">
<feFlood flood-opacity="0" result="BackgroundImageFix"/>
<feColorMatrix in="SourceAlpha" type="matrix" values="0 0 0 0 0 0 0 0 0 0 0 0 0 0 0 0 0 0 127 0" result="hardAlpha"/>
<feOffset dy="12"/>
<feGaussianBlur stdDeviation="10"/>
<feComposite in2="hardAlpha" operator="out"/>
<feColorMatrix type="matrix" values="0 0 0 0 0 0 0 0 0 0 0 0 0 0 0 0 0 0 0.03 0"/>
<feBlend mode="normal" in2="BackgroundImageFix" result="effect1_dropShadow_10196_62617"/>
<feColorMatrix in="SourceAlpha" type="matrix" values="0 0 0 0 0 0 0 0 0 0 0 0 0 0 0 0 0 0 127 0" result="hardAlpha"/>
<feOffset dy="2"/>
<feGaussianBlur stdDeviation="3"/>
<feComposite in2="hardAlpha" operator="out"/>
<feColorMatrix type="matrix" values="0 0 0 0 0 0 0 0 0 0 0 0 0 0 0 0 0 0 0.05 0"/>
<feBlend mode="normal" in2="effect1_dropShadow_10196_62617" result="effect2_dropShadow_10196_62617"/>
<feBlend mode="normal" in="SourceGraphic" in2="effect2_dropShadow_10196_62617" result="shape"/>
</filter>
<clipPath id="clip0_10196_62617">
<rect x="52" y="62" width="216" height="108" rx="12" fill="white"/>
</clipPath>
</defs>
</svg>

<svg xmlns="http://www.w3.org/2000/svg" width="320" height="232" fill="none" viewBox="0 0 320 232"><g filter="url(#a)"><g clip-path="url(#b)"><rect width="216" height="108" x="52" y="62" fill="#0E0F10" rx="12"/><path fill="#2F1C78" fill-rule="evenodd" d="M105 63.5V62h2v1.5zm0 6v-3h2v3zm0 6v-3h2v3zm0 6v-3h2v3zm0 6v-3h2v3zm0 6v-3h2v3zm0 6v-3h2v3zm0 6v-3h2v3zm0 6v-3h2v3zm0 6v-3h2v3zm0 6v-3h2v3zm0 6v-3h2v3zm0 6v-3h2v3zm0 6v-3h2v3zm0 6v-3h2v3zm0 6v-3h2v3zm0 6v-3h2v3zm0 6v-3h2v3zm0 4.5v-1.5h2v1.5zm54-106.5V62h2v1.5zm0 6v-3h2v3zm0 6v-3h2v3zm0 6v-3h2v3zm0 6v-3h2v3zm0 6v-3h2v3zm0 6v-3h2v3zm0 6v-3h2v3zm0 6v-3h2v3zm0 6v-3h2v3zm0 6v-3h2v3zm0 6v-3h2v3zm0 6v-3h2v3zm0 6v-3h2v3zm0 6v-3h2v3zm0 6v-3h2v3zm0 6v-3h2v3zm0 6v-3h2v3zm0 4.5v-1.5h2v1.5zm54-106.5V62h2v1.5zm0 6v-3h2v3zm0 6v-3h2v3zm0 6v-3h2v3zm0 6v-3h2v3zm0 6v-3h2v3zm0 6v-3h2v3zm0 6v-3h2v3zm0 6v-3h2v3zm0 6v-3h2v3zm0 6v-3h2v3zm0 6v-3h2v3zm0 6v-3h2v3zm0 6v-3h2v3zm0 6v-3h2v3zm0 6v-3h2v3zm0 6v-3h2v3zm0 6v-3h2v3zm0 4.5v-1.5h2v1.5zM53.5 145H52v-2h1.5zm6 0h-3v-2h3zm6 0h-3v-2h3zm6 0h-3v-2h3zm6 0h-3v-2h3zm6 0h-3v-2h3zm6 0h-3v-2h3zm6 0h-3v-2h3zm6 0h-3v-2h3zm12 0h-3v-2h3zm6 0h-3v-2h3zm6 0h-3v-2h3zm6 0h-3v-2h3zm6 0h-3v-2h3zm6 0h-3v-2h3zm6 0h-3v-2h3zm6 0h-3v-2h3zm12 0h-3v-2h3zm6 0h-3v-2h3zm6 0h-3v-2h3zm6 0h-3v-2h3zm6 0h-3v-2h3zm6 0h-3v-2h3zm6 0h-3v-2h3zm6 0h-3v-2h3zm11 0h-3v-2h3zm6 0h-3v-2h3zm6 0h-3v-2h3zm6 0h-3v-2h3zm6 0h-3v-2h3zm6 0h-3v-2h3zm6 0h-3v-2h3zm6 0h-3v-2h3zm5.5 0h-2.5v-2h2.5zM53.5 117H52v-2h1.5zm6 0h-3v-2h3zm6 0h-3v-2h3zm6 0h-3v-2h3zm6 0h-3v-2h3zm6 0h-3v-2h3zm6 0h-3v-2h3zm6 0h-3v-2h3zm6 0h-3v-2h3zm12 0h-3v-2h3zm6 0h-3v-2h3zm6 0h-3v-2h3zm6 0h-3v-2h3zm6 0h-3v-2h3zm6 0h-3v-2h3zm6 0h-3v-2h3zm6 0h-3v-2h3zm12 0h-3v-2h3zm6 0h-3v-2h3zm6 0h-3v-2h3zm6 0h-3v-2h3zm6 0h-3v-2h3zm6 0h-3v-2h3zm6 0h-3v-2h3zm6 0h-3v-2h3zm11 0h-3v-2h3zm6 0h-3v-2h3zm6 0h-3v-2h3zm6 0h-3v-2h3zm6 0h-3v-2h3zm6 0h-3v-2h3zm6 0h-3v-2h3zm6 0h-3v-2h3zm5.5 0h-2.5v-2h2.5zM53.5 89H52v-2h1.5zm6 0h-3v-2h3zm6 0h-3v-2h3zm6 0h-3v-2h3zm6 0h-3v-2h3zm6 0h-3v-2h3zm6 0h-3v-2h3zm6 0h-3v-2h3zm6 0h-3v-2h3zm12 0h-3v-2h3zm6 0h-3v-2h3zm6 0h-3v-2h3zm6 0h-3v-2h3zm6 0h-3v-2h3zm6 0h-3v-2h3zm6 0h-3v-2h3zm6 0h-3v-2h3zm12 0h-3v-2h3zm6 0h-3v-2h3zm6 0h-3v-2h3zm6 0h-3v-2h3zm6 0h-3v-2h3zm6 0h-3v-2h3zm6 0h-3v-2h3zm6 0h-3v-2h3zm11 0h-3v-2h3zm6 0h-3v-2h3zm6 0h-3v-2h3zm6 0h-3v-2h3zm6 0h-3v-2h3zm6 0h-3v-2h3zm6 0h-3v-2h3zm6 0h-3v-2h3zm5.5 0h-2.5v-2h2.5z" clip-rule="evenodd"/></g></g><defs><clipPath id="b"><rect width="216" height="108" x="52" y="62" fill="#fff" rx="12"/></clipPath><filter id="a" width="256" height="148" x="32" y="54" color-interpolation-filters="sRGB" filterUnits="userSpaceOnUse"><feFlood flood-opacity="0" result="BackgroundImageFix"/><feColorMatrix in="SourceAlpha" result="hardAlpha" values="0 0 0 0 0 0 0 0 0 0 0 0 0 0 0 0 0 0 127 0"/><feOffset dy="12"/><feGaussianBlur stdDeviation="10"/><feComposite in2="hardAlpha" operator="out"/><feColorMatrix values="0 0 0 0 0 0 0 0 0 0 0 0 0 0 0 0 0 0 0.03 0"/><feBlend in2="BackgroundImageFix" result="effect1_dropShadow_10196_62617"/><feColorMatrix in="SourceAlpha" result="hardAlpha" values="0 0 0 0 0 0 0 0 0 0 0 0 0 0 0 0 0 0 127 0"/><feOffset dy="2"/><feGaussianBlur stdDeviation="3"/><feComposite in2="hardAlpha" operator="out"/><feColorMatrix values="0 0 0 0 0 0 0 0 0 0 0 0 0 0 0 0 0 0 0.05 0"/><feBlend in2="effect1_dropShadow_10196_62617" result="effect2_dropShadow_10196_62617"/><feBlend in="SourceGraphic" in2="effect2_dropShadow_10196_62617" result="shape"/></filter></defs></svg>
